apps/32/alacritty.svg

<?xml version="1.0" encoding="UTF-8" standalone="no"?>
<!-- Created with Inkscape (http://www.inkscape.org/) -->

<svg
   width="32"
   height="32"
   version="1.1"
   viewBox="0 0 32 32"
   id="svg22"
   sodipodi:docname="alacritty-simple.svg"
   inkscape:version="1.1.2 (0a00cf5339, 2022-02-04)"
   xmlns:inkscape="http://www.inkscape.org/namespaces/inkscape"
   xmlns:sodipodi="http://sodipodi.sourceforge.net/DTD/sodipodi-0.dtd"
   xmlns:xlink="http://www.w3.org/1999/xlink"
   xmlns="http://www.w3.org/2000/svg"
   xmlns:svg="http://www.w3.org/2000/svg">
  <sodipodi:namedview
     id="namedview24"
     pagecolor="#ffffff"
     bordercolor="#666666"
     borderopacity="1.0"
     inkscape:showpageshadow="2"
     inkscape:pageopacity="0.0"
     inkscape:pagecheckerboard="0"
     inkscape:deskcolor="#d1d1d1"
     showgrid="false"
     inkscape:zoom="18.14"
     inkscape:cx="2.2601985"
     inkscape:cy="24.614112"
     inkscape:window-width="3440"
     inkscape:window-height="1359"
     inkscape:window-x="0"
     inkscape:window-y="0"
     inkscape:window-maximized="1"
     inkscape:current-layer="svg22"
     inkscape:pageshadow="2" />
  <defs
     id="defs12">
    <linearGradient
       inkscape:collect="always"
       id="linearGradient868">
      <stop
         style="stop-color:#5d7aa3;stop-opacity:1;"
         offset="0"
         id="stop864" />
      <stop
         style="stop-color:#c6afe9;stop-opacity:1"
         offset="1"
         id="stop866" />
    </linearGradient>
    <linearGradient
       id="linearGradient1005-3-3"
       x1="5.2535"
       x2="9.3823996"
       y1="15.383"
       y2="2.9421"
       gradientTransform="matrix(0.99999,0,0,0.99999,1.632,-0.61743)"
       gradientUnits="userSpaceOnUse">
      <stop
         stop-color="#fa8200"
         offset="0"
         id="stop2" />
      <stop
         stop-color="#ff9600"
         offset=".36953"
         id="stop4" />
      <stop
         stop-color="#ffb400"
         offset="1"
         id="stop6" />
    </linearGradient>
    <filter
       id="filter4014"
       x="-0.062499933"
       y="-0.057692993"
       width="1.1249999"
       height="1.115386"
       color-interpolation-filters="sRGB">
      <feGaussianBlur
         stdDeviation="1.093751"
         id="feGaussianBlur9" />
    </filter>
    <linearGradient
       inkscape:collect="always"
       xlink:href="#linearGradient3487"
       id="linearGradient3403"
       gradientUnits="userSpaceOnUse"
       x1="6.9491749"
       y1="4.5549412"
       x2="11.215498"
       y2="59.052471" />
    <linearGradient
       id="linearGradient3487">
      <stop
         style="stop-color:#32373c;stop-opacity:1"
         offset="0"
         id="stop3481" />
      <stop
         id="stop3483"
         offset="0.36804965"
         style="stop-color:#1a1a1a;stop-opacity:1" />
      <stop
         style="stop-color:#31363b;stop-opacity:1"
         offset="1"
         id="stop3485" />
    </linearGradient>
    <linearGradient
       inkscape:collect="always"
       xlink:href="#linearGradient20604"
       id="linearGradient20558"
       gradientUnits="userSpaceOnUse"
       x1="25.802212"
       y1="20.373846"
       x2="25.111048"
       y2="58.912758" />
    <linearGradient
       id="linearGradient20604">
      <stop
         id="stop20598"
         offset="0"
         style="stop-color:#3d3d3d;stop-opacity:1" />
      <stop
         style="stop-color:#000000;stop-opacity:1"
         offset="0.61772454"
         id="stop20600" />
      <stop
         id="stop20602"
         offset="1"
         style="stop-color:#3d3d3d;stop-opacity:1" />
    </linearGradient>
    <filter
       inkscape:collect="always"
       style="color-interpolation-filters:sRGB"
       id="filter20720"
       x="-0.017024755"
       y="-0.016457183"
       width="1.0340491"
       height="1.0329144">
      <feGaussianBlur
         inkscape:collect="always"
         stdDeviation="0.14745661"
         id="feGaussianBlur20722" />
    </filter>
    <linearGradient
       gradientTransform="translate(0.36067797,-0.13016949)"
       xlink:href="#linearGradient4555"
       id="linearGradient4557"
       x1="43.499737"
       y1="64.011795"
       x2="44.141731"
       y2="0.30621234"
       gradientUnits="userSpaceOnUse" />
    <linearGradient
       id="linearGradient4555">
      <stop
         style="stop-color:#141618;stop-opacity:1"
         offset="0"
         id="stop4551" />
      <stop
         id="stop4559"
         offset="0.51820582"
         style="stop-color:#686868;stop-opacity:1" />
      <stop
         style="stop-color:#31363b;stop-opacity:1"
         offset="1"
         id="stop4553" />
    </linearGradient>
    <filter
       style="color-interpolation-filters:sRGB"
       id="filter4601"
       x="-0.030244762"
       width="1.0604895"
       y="-0.030100647"
       height="1.0602013">
      <feGaussianBlur
         stdDeviation="0.014790289"
         id="feGaussianBlur4603" />
    </filter>
    <linearGradient
       inkscape:collect="always"
       xlink:href="#linearGradient937"
       id="linearGradient939"
       x1="8.4666796"
       y1="13.2529"
       x2="8.4666796"
       y2="9.2222004"
       gradientUnits="userSpaceOnUse" />
    <linearGradient
       inkscape:collect="always"
       id="linearGradient937">
      <stop
         style="stop-color:#00ccff;stop-opacity:1;"
         offset="0"
         id="stop933" />
      <stop
         style="stop-color:#aaeeff;stop-opacity:1"
         offset="1"
         id="stop935" />
    </linearGradient>
    <linearGradient
       inkscape:collect="always"
       xlink:href="#linearGradient929"
       id="linearGradient931"
       x1="8.4666796"
       y1="13.2529"
       x2="8.4665003"
       y2="3.8724999"
       gradientUnits="userSpaceOnUse" />
    <linearGradient
       inkscape:collect="always"
       id="linearGradient929">
      <stop
         style="stop-color:#ff9955;stop-opacity:1"
         offset="0"
         id="stop925" />
      <stop
         style="stop-color:#ffccaa;stop-opacity:1"
         offset="1"
         id="stop927" />
    </linearGradient>
    <linearGradient
       inkscape:collect="always"
       xlink:href="#linearGradient953"
       id="linearGradient955"
       x1="8.4665003"
       y1="7.4802999"
       x2="8.4665003"
       y2="11.0882"
       gradientUnits="userSpaceOnUse" />
    <linearGradient
       inkscape:collect="always"
       id="linearGradient953">
      <stop
         style="stop-color:#e3d7f4;stop-opacity:1"
         offset="0"
         id="stop949" />
      <stop
         style="stop-color:#aa87de;stop-opacity:1"
         offset="1"
         id="stop951" />
    </linearGradient>
    <linearGradient
       inkscape:collect="always"
       xlink:href="#linearGradient868"
       id="linearGradient870"
       x1="41.13887"
       y1="7.9866939"
       x2="9.0222931"
       y2="40.888161"
       gradientUnits="userSpaceOnUse"
       gradientTransform="matrix(0.65986039,0,0,0.65986039,0.257577,0.21519269)" />
  </defs>
  <rect
     style="display:inline;fill:url(#linearGradient870);fill-opacity:1;fill-rule:evenodd;stroke:none;stroke-width:0.612232;stroke-linejoin:round;stroke-miterlimit:7.8"
     id="rect1192"
     width="27.769962"
     height="28.184029"
     x="2.3446562"
     y="2.2069745"
     ry="0"
     inkscape:label="arriere" />
  <g
     clip-rule="evenodd"
     fill-rule="evenodd"
     stroke-width="0.36079"
     id="g331-7"
     transform="matrix(2.5188307,0,0,2.4592563,-2.3637373,-5.0362431)">
    <path
       d="m 7.7204,9.2222 -0.33612,0.7836 1.0824,3.2471 1.0824,-3.2471 -0.33612,-0.7836 z"
       enable-background="new"
       style="fill:url(#linearGradient939);fill-opacity:1;paint-order:normal"
       id="path325-0" />
    <path
       d="M 7.7449,3.8725 4.4978,12.1706 H 5.941 l 2.5255,-6.1334 2.5255,6.1334 h 1.4432 L 9.1881,3.8725 Z"
       enable-background="new"
       id="path327-9"
       style="fill:url(#linearGradient931);fill-opacity:1" />
    <path
       d="M 8.4665,7.4803 7.72025,9.2222 8.4665,11.0882 9.21275,9.2222 Z"
       enable-background="new"
       id="path329-3"
       style="fill:url(#linearGradient955);fill-opacity:1" />
  </g>
  <path
     style="display:inline;mix-blend-mode:normal;fill:url(#linearGradient3403);fill-opacity:1;stroke:url(#linearGradient20558);stroke-width:1.16242;stroke-linecap:butt;stroke-linejoin:round;stroke-miterlimit:4;stroke-dasharray:none;stroke-opacity:1;filter:url(#filter20720)"
     d="M 4.7043071,3.9814882 4.6913695,60.80196 H 58.59546 l 1.022155,-2.866369 c 0,0 -23.87537,0.766388 -32.844441,-4.140386 C 16.257548,48.042344 11.401114,4.0978197 11.401114,4.0978197 Z"
     id="path1686"
     sodipodi:nodetypes="ccccscc"
     transform="matrix(0.49613563,0,0,0.49613563,0.32336817,0.23161421)"
     inkscape:label="folder" />
  <rect
     style="display:inline;fill:none;fill-opacity:1;stroke:url(#linearGradient4557);stroke-width:3.71366;stroke-linejoin:round;stroke-miterlimit:7.8;stroke-dasharray:none;stroke-opacity:0.995146;filter:url(#filter4601)"
     id="rect4539"
     width="62.567089"
     height="62.866646"
     x="1.0323594"
     y="0.59551275"
     ry="6.2447233"
     rx="5.8029528"
     transform="matrix(0.4647713,0,0,0.46382399,1.1569566,1.2341533)"
     inkscape:label="contour" />
</svg>

<svg width="32" height="32" version="1.1" viewBox="0 0 32 32" xmlns="http://www.w3.org/2000/svg" xmlns:xlink="http://www.w3.org/1999/xlink">
<defs>
<linearGradient id="linearGradient3403" x1="6.9492" x2="11.215" y1="4.5549" y2="59.052" gradientUnits="userSpaceOnUse">
<stop style="stop-color:#32373c" offset="0"/>
<stop style="stop-color:#1a1a1a" offset=".36805"/>
<stop style="stop-color:#31363b" offset="1"/>
</linearGradient>
<linearGradient id="linearGradient20558" x1="25.802" x2="25.111" y1="20.374" y2="58.913" gradientUnits="userSpaceOnUse">
<stop style="stop-color:#3d3d3d" offset="0"/>
<stop offset=".61772"/>
<stop style="stop-color:#3d3d3d" offset="1"/>
</linearGradient>
<linearGradient id="linearGradient4557" x1="43.5" x2="44.142" y1="64.012" y2=".30621" gradientTransform="translate(.36068 -.13017)" gradientUnits="userSpaceOnUse">
<stop style="stop-color:#141618" offset="0"/>
<stop style="stop-color:#686868" offset=".51821"/>
<stop style="stop-color:#31363b" offset="1"/>
</linearGradient>
<linearGradient id="linearGradient939" x1="8.4667" x2="8.4667" y1="13.253" y2="9.2222" gradientUnits="userSpaceOnUse">
<stop style="stop-color:#0cf" offset="0"/>
<stop style="stop-color:#aef" offset="1"/>
</linearGradient>
<linearGradient id="linearGradient931" x1="8.4667" x2="8.4665" y1="13.253" y2="3.8725" gradientUnits="userSpaceOnUse">
<stop style="stop-color:#f95" offset="0"/>
<stop style="stop-color:#fca" offset="1"/>
</linearGradient>
<linearGradient id="linearGradient955" x1="8.4665" x2="8.4665" y1="7.4803" y2="11.088" gradientUnits="userSpaceOnUse">
<stop style="stop-color:#e3d7f4" offset="0"/>
<stop style="stop-color:#aa87de" offset="1"/>
</linearGradient>
<linearGradient id="linearGradient870" x1="41.139" x2="9.0223" y1="7.9867" y2="40.888" gradientTransform="matrix(.65986 0 0 .65986 .25758 .21519)" gradientUnits="userSpaceOnUse">
<stop style="stop-color:#5d7aa3" offset="0"/>
<stop style="stop-color:#c6afe9" offset="1"/>
</linearGradient>
</defs>
<rect x="2.3447" y="2.207" width="27.77" height="28.184" ry="0" style="fill-rule:evenodd;fill:url(#linearGradient870)"/>
<g transform="matrix(2.5188 0 0 2.4593 -2.3637 -5.0362)" clip-rule="evenodd" fill-rule="evenodd" stroke-width=".36079">
<path d="m7.7204 9.2222-0.33612 0.7836 1.0824 3.2471 1.0824-3.2471-0.33612-0.7836z" enable-background="new" style="fill:url(#linearGradient939);paint-order:normal"/>
<path d="m7.7449 3.8725-3.2471 8.2981h1.4432l2.5255-6.1334 2.5255 6.1334h1.4432l-3.2471-8.2981z" enable-background="new" style="fill:url(#linearGradient931)"/>
<path d="m8.4665 7.4803-0.74625 1.7419 0.74625 1.866 0.74625-1.866z" enable-background="new" style="fill:url(#linearGradient955)"/>
</g>
<path transform="matrix(.49614 0 0 .49614 .32337 .23161)" d="m4.7043 3.9815-0.012938 56.82h53.904l1.0222-2.8664s-23.875 0.76639-32.844-4.1404c-10.516-5.7529-15.372-49.697-15.372-49.697z" style="fill:url(#linearGradient3403);mix-blend-mode:normal;stroke-linejoin:round;stroke-width:1.1624;stroke:url(#linearGradient20558)"/>
<rect transform="matrix(.46477 0 0 .46382 1.157 1.2342)" x="1.0324" y=".59551" width="62.567" height="62.867" rx="5.803" ry="6.2447" style="fill:none;stroke-linejoin:round;stroke-miterlimit:7.8;stroke-opacity:.99515;stroke-width:3.7137;stroke:url(#linearGradient4557)"/>
</svg>
